svg/Pictogram/pictograms-nps-misc-metro_station.svg

<svg xmlns="http://www.w3.org/2000/svg" viewBox="0 0 256 256"><path d="m0 0c-.541 0-.98-.44-.98-.981v-7.522c0-.541.439-.981.98-.981h7.521c.54 0 .979.44.979.981v7.522c0 .541-.439.981-.979.981h-7.521" fill="#fff" transform="matrix(25.89783 0 0-25.89783 30.598 5.185)"/><path d="m0 0h-7.521c-.653 0-1.182-.529-1.182-1.182v-7.521c0-.652.529-1.182 1.182-1.182h7.521c.652 0 1.18.53 1.18 1.182v7.521c0 .653-.528 1.182-1.18 1.182" transform="matrix(25.89783 0 0-25.89783 225.39 0)"/><path d="m0 0h2.121l1.602-4.713h.019l1.517 4.713h2.121v-6.852h-1.411v4.856h-.019l-1.679-4.856h-1.162l-1.679 4.808h-.02v-4.808h-1.41v6.852" fill="#fff" transform="matrix(25.89783 0 0-25.89783 31.914 39.1)"/></svg>

<?xml version="1.0" encoding="UTF-8" standalone="no"?>
<!-- Created with Inkscape (http://www.inkscape.org/) -->
<svg
   xmlns:dc="http://purl.org/dc/elements/1.1/"
   xmlns:cc="http://creativecommons.org/ns#"
   xmlns:rdf="http://www.w3.org/1999/02/22-rdf-syntax-ns#"
   xmlns:svg="http://www.w3.org/2000/svg"
   xmlns="http://www.w3.org/2000/svg"
   xmlns:sodipodi="http://sodipodi.sourceforge.net/DTD/sodipodi-0.dtd"
   xmlns:inkscape="http://www.inkscape.org/namespaces/inkscape"
   width="256"
   height="256"
   id="svg8302"
   sodipodi:version="0.32"
   inkscape:version="0.46"
   version="1.0"
   sodipodi:docname="pictograms-nps-misc-metro_station-2.svg"
   inkscape:output_extension="org.inkscape.output.svg.inkscape">
  <defs
     id="defs8304">
    <inkscape:perspective
       sodipodi:type="inkscape:persp3d"
       inkscape:vp_x="0 : 526.18109 : 1"
       inkscape:vp_y="0 : 1000 : 0"
       inkscape:vp_z="744.09448 : 526.18109 : 1"
       inkscape:persp3d-origin="372.04724 : 350.78739 : 1"
       id="perspective8310" />
  </defs>
  <sodipodi:namedview
     id="base"
     pagecolor="#ffffff"
     bordercolor="#666666"
     borderopacity="1.0"
     gridtolerance="10000"
     guidetolerance="10"
     objecttolerance="10"
     inkscape:pageopacity="0.0"
     inkscape:pageshadow="2"
     inkscape:zoom="0.7"
     inkscape:cx="61.634556"
     inkscape:cy="136.73676"
     inkscape:document-units="px"
     inkscape:current-layer="layer1"
     showgrid="false"
     inkscape:window-width="738"
     inkscape:window-height="674"
     inkscape:window-x="0"
     inkscape:window-y="198" />
  <metadata
     id="metadata8307">
    <rdf:RDF>
      <cc:Work
         rdf:about="">
        <dc:format>image/svg+xml</dc:format>
        <dc:type
           rdf:resource="http://purl.org/dc/dcmitype/StillImage" />
      </cc:Work>
    </rdf:RDF>
  </metadata>
  <g
     inkscape:label="Layer 1"
     inkscape:groupmode="layer"
     id="layer1">
    <g
       id="g2610"
       transform="matrix(25.897825,0,0,-25.897825,30.598168,5.1847446)">
      <path
         d="M 0,0 C -0.541,0 -0.98,-0.44 -0.98,-0.981 L -0.98,-8.503 C -0.98,-9.044 -0.541,-9.484 0,-9.484 L 7.521,-9.484 C 8.061,-9.484 8.5,-9.044 8.5,-8.503 L 8.5,-0.981 C 8.5,-0.44 8.061,0 7.521,0 L 0,0 z"
         style="fill:#ffffff;fill-opacity:1;fill-rule:nonzero;stroke:none"
         id="path2612" />
    </g>
    <g
       id="g2614"
       transform="matrix(25.897825,0,0,-25.897825,225.38877,0)">
      <path
         d="M 0,0 L -7.521,0 C -8.174,0 -8.703,-0.529 -8.703,-1.182 L -8.703,-8.703 C -8.703,-9.355 -8.174,-9.885 -7.521,-9.885 L 0,-9.885 C 0.652,-9.885 1.18,-9.355 1.18,-8.703 L 1.18,-1.182 C 1.18,-0.529 0.652,0 0,0"
         style="fill:#000000;fill-opacity:1;fill-rule:nonzero;stroke:none"
         id="path2616" />
    </g>
    <g
       id="g2618"
       transform="matrix(25.897825,0,0,-25.897825,31.913778,39.100536)">
      <path
         d="M 0,0 L 2.121,0 L 3.723,-4.713 L 3.742,-4.713 L 5.259,0 L 7.38,0 L 7.38,-6.852 L 5.969,-6.852 L 5.969,-1.996 L 5.95,-1.996 L 4.271,-6.852 L 3.109,-6.852 L 1.43,-2.044 L 1.41,-2.044 L 1.41,-6.852 L 0,-6.852 L 0,0 z"
         style="fill:#ffffff;fill-opacity:1;fill-rule:nonzero;stroke:none"
         id="path2620" />
    </g>
  </g>
</svg>
